**kern	**kern	**dynam
*part1	*part1	*part1
*staff2	*staff1	*
*I"Piano	*	*
*clefF4	*clefG2	*
*k[b-e-a-d-g-c-]	*k[b-e-a-d-g-c-]	*
=1	=1	=1
8G-L	8d-L 8g- 8b-	.
8G-	8d- 8g- 8b-	.
8G-	8d- 8g- 8b-	.
8G-J	8c-J 8f 8a-	.
=	=	=
8G-L	8B-L 8d- 8g-	.
8G-	8B- 8d- 8g-	.
8G-	8B- 8d- 8f	.
8G-J	8B-J 8d- 8f	.
=	=	=
8G-L	8B-L 8d- 8en	.
8G-	8B- 8d- 8e	.
8G-	8B- 8d- 8e	.
8G-J	8B-J 8d- 8e	.
=	=	=
8FL	8B-L 8d- 8f	.
8F	8B- 8d- 8f	.
8D-	8B- 8d- 8f	.
8BB-J	8B-J 8d- 8f	.
=	=	=
8C-L	8A-L 8c- 8f	.
8C-	8A- 8c- 8f	.
8C-	8G- 8B- 8en	.
8C-J	8G-J 8B- 8e	.
=	=	=
8FFL	8A-L 8c- 8f	mf
!	!LO:TX:b:i:t=dim.	!
8FF	8A- 8c- 8f	.
8FF	8A- 8c- 8f	.
8FFJ	8A-J 8c- 8f	.
=	=	=
8EE-XL	8B-L 8d- 8gn	.
8EE-	8B- 8d- 8g	.
8EE-	8B- 8d- 8g	.
8EE-J	8B-J 8d- 8g	.
=	=	=
2AA-	16cnLL	p
.	16e-	.
.	16a-	.
.	16e-JJ	.
.	16cLL	.
.	16e-	.
.	16a-	.
.	16e-JJ	.
=	=	=
*-	*-	*-
!!!system-decoration: {(s1,s2)}
